X: 1
T: The Cashmere Shawl
C: Janette Gibb
R: Strathspey
%Q: 128
K: G
M: 4/4
L: 1/16
d3c |\
"G"B3c d3e d4 g4 | "C"a4 g4 e4 g4 | "G"d3e d3B "(Em)"G3A B3G | "A(m)"B4 A4 "D7"A4 ||
d3c |\
"G"B3c d3e d4 g4 | "C"a4 g4 e3f g3e | "G"d3e d3B "(Em)"G3A B3G | "D7"A4 F4 "G"G4 |]
|: d4 |\
"G"d4 g4 "C"e4 g4 | "G"d3e d3c B3c d4 | "C"e4 g4 \
[1 "G"d4 G4 | "A(m)"B4 A4 "D7"A4 d4 :|[2 "G"d4 g4 | "D7"a8 "G"g4 |]
